X: 3708
T: The Queen City Salute
T: Medley 4 x (32S + 32R)
%
P: Miss Jeany Abernethy
C:I. Cooper (Glen Coll.)
B:RSCDS 37-8
Z:Anselm Lingnau <anselm@strathspey.org>
M:C
L:1/8
K:C
|:"C"c>G E>G c>d e>c|"G7"d>f "C"e>g "G"f<B B2|\
"C"c>d e>c G>c "Am"e>a|"G7"g>f e>d "C"e<c c2:|
"C"g>e c>g e<c g>e|"Dm"f>g a/g/f/e/ "G7"f<d d2|\
"C"g>e c>g "Am"e<e "C"g>e|"F"f>a "G7"g<f "C"e<c c2|
"C"g>e c>g e<c g>e|"Dm"f>g a/g/f/e/ "G7"f<d d2|\
"C"c>G c>e "G7"d>f "C7"e>g|"F"f<a "G7"g>f "C"e<c c2|]
%
P: Miss Christie of Durrie
C:J. Walker (Glen Coll.)
Z:Anselm Lingnau <anselm@strathspey.org>
B:RSCDS 37-8
M:C|
L:1/8
K:C
|:B|"C"c2Bc GcBc|"Dm"defd "G"cBAG|"C"c2Bc "Dm"defd|"G"ecdB "C"c2 c:|
f|"C"g2eg "Dm"f2df|afed "G"cBAG|"C"c2Bc "Dm"defd|"G"ecdB "C"c2 cf|
  "C"g2eg "Dm"f2df|afed "G"cBAG|"C"ce"G7"df "C"eg"F"fa|"G7"gefd "C"c2c|]
%%center Book37/3708-Queen_City_Salute-AL.abc

%%newpage
%%center OTHER TRANSCRIPTIONS
%%sep 3 1 500
%%sep 1 1 500

%%sep 1 1 500
%%sep 1 1 500

